Numix-GalliumOS/64/mimetypes/application-vnd.oasis.opendocument.spreadsheet.svg

<svg xmlns="http://www.w3.org/2000/svg" xmlns:xlink="http://www.w3.org/1999/xlink" width="64px" height="64px" viewBox="0 0 64 64" version="1.1">
<g id="surface1">
<path style=" stroke:none;fill-rule:nonzero;fill:rgb(12.54902%,44.313725%,27.058824%);fill-opacity:1;" d="M 10.671875 0 C 9.296875 0 8 1.355469 8 2.789062 L 8 61.210938 C 8 62.566406 9.375 64 10.671875 64 L 53.328125 64 C 54.625 64 56 62.566406 56 61.210938 L 56 18 L 38 0 Z M 10.671875 0 "/>
<path style=" stroke:none;fill-rule:nonzero;fill:rgb(0%,0%,0%);fill-opacity:0.196078;" d="M 42 18 L 56 32 L 56 18 Z M 42 18 "/>
<path style=" stroke:none;fill-rule:nonzero;fill:rgb(100%,100%,100%);fill-opacity:1;" d="M 44 22 L 44 42 L 20 42 L 20 22 Z M 42 24 L 30 24 L 30 28 L 42 28 Z M 28 24 L 22 24 L 22 28 L 28 28 Z M 42 30 L 30 30 L 30 34 L 42 34 Z M 28 30 L 22 30 L 22 34 L 28 34 Z M 42 36 L 30 36 L 30 40 L 42 40 Z M 28 36 L 22 36 L 22 40 L 28 40 Z M 28 36 "/>
<path style=" stroke:none;fill-rule:nonzero;fill:rgb(0%,0%,0%);fill-opacity:0.196078;" d="M 8 48 L 8 61.335938 C 8 62.632812 9.375 64 10.664062 64 L 53.335938 64 C 54.625 64 56 62.632812 56 61.335938 L 56 48 Z M 8 48 "/>
<path style=" stroke:none;fill-rule:nonzero;fill:rgb(100%,100%,100%);fill-opacity:0.392157;" d="M 38 0 L 55.984375 18 L 40.757812 18 C 39.410156 18 38 16.574219 38 15.226562 Z M 38 0 "/>
<path style=" stroke:none;fill-rule:nonzero;fill:rgb(100%,100%,100%);fill-opacity:1;" d="M 20.335938 56.25 C 20.335938 56.789062 20.351562 57.292969 20.394531 57.765625 C 20.453125 58.230469 20.546875 58.632812 20.679688 58.976562 C 20.824219 59.324219 21.027344 59.59375 21.277344 59.792969 C 21.53125 59.996094 21.875 60.097656 22.304688 60.097656 C 22.71875 60.097656 23.046875 59.996094 23.308594 59.792969 C 23.570312 59.59375 23.769531 59.324219 23.90625 58.976562 C 24.058594 58.617188 24.148438 58.210938 24.183594 57.75 C 24.242188 57.285156 24.265625 56.789062 24.265625 56.25 C 24.265625 55.722656 24.242188 55.222656 24.183594 54.761719 C 24.148438 54.28125 24.058594 53.878906 23.90625 53.53125 C 23.769531 53.1875 23.578125 52.917969 23.324219 52.714844 C 23.070312 52.515625 22.726562 52.414062 22.304688 52.414062 C 21.875 52.414062 21.53125 52.515625 21.277344 52.714844 C 21.027344 52.917969 20.824219 53.195312 20.679688 53.550781 C 20.546875 53.894531 20.453125 54.296875 20.394531 54.761719 C 20.351562 55.222656 20.335938 55.722656 20.335938 56.25 M 17.828125 56.25 C 17.828125 54.355469 18.222656 52.925781 19.015625 51.96875 C 19.804688 50.992188 20.898438 50.511719 22.304688 50.511719 C 23.761719 50.511719 24.863281 50.992188 25.628906 51.96875 C 26.386719 52.925781 26.777344 54.355469 26.777344 56.25 C 26.777344 58.152344 26.386719 59.585938 25.613281 60.5625 C 24.832031 61.519531 23.738281 62 22.324219 62 C 20.867188 62 19.746094 61.519531 18.972656 60.5625 C 18.214844 59.585938 17.828125 58.152344 17.828125 56.25 "/>
<path style=" stroke:none;fill-rule:nonzero;fill:rgb(100%,100%,100%);fill-opacity:1;" d="M 30.867188 59.988281 C 30.933594 60.003906 31 60.003906 31.085938 60.003906 C 31.160156 60.003906 31.238281 60.003906 31.304688 60.003906 C 31.867188 60.003906 32.332031 59.914062 32.710938 59.71875 C 33.097656 59.535156 33.398438 59.273438 33.625 58.9375 C 33.871094 58.609375 34.039062 58.222656 34.132812 57.765625 C 34.242188 57.304688 34.292969 56.796875 34.292969 56.25 C 34.292969 55.78125 34.25 55.316406 34.175781 54.863281 C 34.089844 54.417969 33.945312 54.019531 33.753906 53.675781 C 33.550781 53.332031 33.273438 53.0625 32.929688 52.859375 C 32.582031 52.640625 32.128906 52.539062 31.582031 52.539062 C 31.480469 52.539062 31.355469 52.539062 31.21875 52.554688 C 31.09375 52.554688 30.96875 52.5625 30.867188 52.589844 L 30.867188 59.988281 M 36.800781 56.25 C 36.800781 57.277344 36.648438 58.144531 36.355469 58.867188 C 36.078125 59.585938 35.679688 60.164062 35.175781 60.609375 C 34.664062 61.066406 34.054688 61.394531 33.347656 61.613281 C 32.652344 61.804688 31.882812 61.90625 31.042969 61.90625 C 30.605469 61.90625 30.167969 61.890625 29.738281 61.839844 C 29.324219 61.804688 28.878906 61.738281 28.398438 61.644531 L 28.398438 50.898438 C 28.957031 50.789062 29.484375 50.722656 29.980469 50.6875 C 30.480469 50.652344 30.933594 50.628906 31.363281 50.628906 C 32.179688 50.628906 32.917969 50.738281 33.59375 50.957031 C 34.273438 51.167969 34.847656 51.503906 35.308594 51.96875 C 35.78125 52.421875 36.144531 53.003906 36.394531 53.710938 C 36.664062 54.40625 36.800781 55.257812 36.800781 56.25 "/>
<path style=" stroke:none;fill-rule:nonzero;fill:rgb(100%,100%,100%);fill-opacity:1;" d="M 41.992188 60.164062 C 42.40625 60.164062 42.742188 60.132812 43.011719 60.0625 C 43.289062 59.980469 43.515625 59.871094 43.675781 59.746094 C 43.835938 59.601562 43.9375 59.441406 43.996094 59.28125 C 44.0625 59.105469 44.097656 58.917969 44.097656 58.742188 C 44.097656 58.515625 44.023438 58.320312 43.878906 58.136719 C 43.726562 57.960938 43.542969 57.808594 43.316406 57.671875 C 43.085938 57.539062 42.835938 57.414062 42.550781 57.304688 C 42.269531 57.183594 41.992188 57.074219 41.707031 56.984375 C 41.335938 56.867188 40.949219 56.730469 40.546875 56.570312 C 40.140625 56.417969 39.78125 56.226562 39.441406 55.988281 C 39.125 55.746094 38.855469 55.460938 38.644531 55.113281 C 38.425781 54.761719 38.324219 54.324219 38.324219 53.800781 C 38.324219 52.765625 38.695312 51.957031 39.441406 51.378906 C 40.210938 50.796875 41.246094 50.511719 42.574219 50.511719 C 43.332031 50.511719 43.996094 50.585938 44.550781 50.738281 C 45.132812 50.890625 45.613281 51.066406 46 51.25 L 45.277344 52.941406 C 44.949219 52.773438 44.570312 52.640625 44.15625 52.515625 C 43.753906 52.394531 43.289062 52.335938 42.75 52.335938 C 41.4375 52.335938 40.789062 52.757812 40.789062 53.601562 C 40.789062 53.820312 40.855469 54.003906 40.992188 54.171875 C 41.117188 54.324219 41.285156 54.464844 41.488281 54.601562 C 41.699219 54.71875 41.933594 54.828125 42.1875 54.921875 C 42.457031 55.015625 42.71875 55.105469 42.96875 55.191406 C 43.355469 55.316406 43.761719 55.46875 44.171875 55.628906 C 44.601562 55.789062 44.988281 56 45.335938 56.269531 C 45.695312 56.527344 45.992188 56.867188 46.21875 57.269531 C 46.445312 57.65625 46.5625 58.152344 46.5625 58.757812 C 46.5625 59.792969 46.175781 60.59375 45.417969 61.167969 C 44.671875 61.722656 43.523438 62 41.992188 62 C 40.957031 62 40.140625 61.90625 39.527344 61.714844 C 38.914062 61.511719 38.449219 61.328125 38.136719 61.167969 L 38.863281 59.382812 C 39.222656 59.574219 39.652344 59.753906 40.140625 59.921875 C 40.65625 60.082031 41.269531 60.164062 41.992188 60.164062 "/>
</g>
</svg>

<svg xmlns="http://www.w3.org/2000/svg" viewBox="0 0 64 64">
 <g>
  <path d="m 10.672 0 c -1.375 0 -2.672 1.355 -2.672 2.789 l 0 58.42 c 0 1.355 1.375 2.789 2.672 2.789 l 42.656 0 c 1.297 0 2.672 -1.434 2.672 -2.789 l 0 -43.21 l -18 -18 m -27.328 0" style="fill:#207045;fill-opacity:1;stroke:none;fill-rule:nonzero"/>
  <path d="m 42 18 l 14 14 l 0 -14 m -14 0" style="fill:#000;fill-opacity:0.196;stroke:none;fill-rule:nonzero"/>
  <path d="m 44 22 l 0 20 l -24 0 l 0 -20 m 22 2 l -12 0 l 0 4 l 12 0 m -14 -4 l -6 0 l 0 4 l 6 0 m 14 2 l -12 0 l 0 4 l 12 0 m -14 -4 l -6 0 l 0 4 l 6 0 m 14 2 l -12 0 l 0 4 l 12 0 m -14 -4 l -6 0 l 0 4 l 6 0 m 0 -4" style="fill:#fff;fill-opacity:1;stroke:none;fill-rule:nonzero"/>
  <path d="m 8 48 l 0 13.336 c 0 1.297 1.375 2.664 2.664 2.664 l 42.672 0 c 1.289 0 2.664 -1.367 2.664 -2.664 l 0 -13.336 m -48 0" style="fill:#000;fill-opacity:0.196;stroke:none;fill-rule:nonzero"/>
  <path d="m 38 0 l 17.984 18 l -15.227 0 c -1.348 0 -2.758 -1.426 -2.758 -2.773 m 0 -15.227" style="fill:#fff;fill-opacity:0.392;stroke:none;fill-rule:nonzero"/>
  <path d="m 20.336 56.25 c 0 0.539 0.016 1.043 0.059 1.516 c 0.059 0.465 0.152 0.867 0.285 1.211 c 0.145 0.348 0.348 0.617 0.598 0.816 c 0.254 0.203 0.598 0.305 1.027 0.305 c 0.414 0 0.742 -0.102 1 -0.305 c 0.262 -0.199 0.461 -0.469 0.598 -0.816 c 0.152 -0.359 0.242 -0.766 0.277 -1.227 c 0.059 -0.465 0.082 -0.961 0.082 -1.5 c 0 -0.527 -0.023 -1.027 -0.082 -1.488 c -0.035 -0.48 -0.125 -0.883 -0.277 -1.23 c -0.137 -0.344 -0.328 -0.613 -0.582 -0.816 c -0.254 -0.199 -0.598 -0.301 -1.02 -0.301 c -0.43 0 -0.773 0.102 -1.027 0.301 c -0.25 0.203 -0.453 0.48 -0.598 0.836 c -0.133 0.344 -0.227 0.746 -0.285 1.211 c -0.043 0.461 -0.059 0.961 -0.059 1.488 m -2.508 0 c 0 -1.895 0.395 -3.324 1.188 -4.281 c 0.789 -0.977 1.883 -1.457 3.289 -1.457 c 1.457 0 2.559 0.48 3.324 1.457 c 0.758 0.957 1.148 2.387 1.148 4.281 c 0 1.902 -0.391 3.336 -1.164 4.313 c -0.781 0.957 -1.875 1.438 -3.289 1.438 c -1.457 0 -2.578 -0.48 -3.352 -1.438 c -0.758 -0.977 -1.145 -2.41 -1.145 -4.313" style="fill:#fff;fill-opacity:1;stroke:none;fill-rule:nonzero"/>
  <path d="m 30.867 59.988 c 0.066 0.016 0.133 0.016 0.219 0.016 c 0.074 0 0.152 0 0.219 0 c 0.563 0 1.027 -0.09 1.406 -0.285 c 0.387 -0.184 0.688 -0.445 0.914 -0.781 c 0.246 -0.328 0.414 -0.715 0.508 -1.172 c 0.109 -0.461 0.16 -0.969 0.16 -1.516 c 0 -0.469 -0.043 -0.934 -0.117 -1.387 c -0.086 -0.445 -0.23 -0.844 -0.422 -1.188 c -0.203 -0.344 -0.48 -0.613 -0.824 -0.816 c -0.348 -0.219 -0.801 -0.32 -1.348 -0.32 c -0.102 0 -0.227 0 -0.363 0.016 c -0.125 0 -0.25 0.008 -0.352 0.035 l 0 7.398 m 5.934 -3.738 c 0 1.027 -0.152 1.895 -0.445 2.617 c -0.277 0.719 -0.676 1.297 -1.18 1.742 c -0.512 0.457 -1.121 0.785 -1.828 1 c -0.695 0.191 -1.465 0.293 -2.305 0.293 c -0.438 0 -0.875 -0.016 -1.305 -0.066 c -0.414 -0.035 -0.859 -0.102 -1.34 -0.195 l 0 -10.746 c 0.559 -0.109 1.086 -0.176 1.582 -0.211 c 0.5 -0.035 0.953 -0.059 1.383 -0.059 c 0.816 0 1.555 0.109 2.23 0.328 c 0.68 0.211 1.254 0.547 1.715 1.012 c 0.473 0.453 0.836 1.035 1.086 1.742 c 0.27 0.695 0.406 1.547 0.406 2.539" style="fill:#fff;fill-opacity:1;stroke:none;fill-rule:nonzero"/>
  <path d="m 41.992 60.16 c 0.414 0 0.75 -0.031 1.02 -0.102 c 0.277 -0.082 0.504 -0.191 0.664 -0.316 c 0.16 -0.145 0.262 -0.305 0.32 -0.465 c 0.066 -0.176 0.102 -0.363 0.102 -0.539 c 0 -0.227 -0.074 -0.422 -0.219 -0.605 c -0.152 -0.176 -0.336 -0.328 -0.563 -0.465 c -0.23 -0.133 -0.48 -0.258 -0.766 -0.367 c -0.281 -0.121 -0.559 -0.23 -0.844 -0.32 c -0.371 -0.117 -0.758 -0.254 -1.16 -0.414 c -0.406 -0.152 -0.766 -0.344 -1.105 -0.582 c -0.316 -0.242 -0.586 -0.527 -0.797 -0.875 c -0.219 -0.352 -0.32 -0.789 -0.32 -1.313 c 0 -1.035 0.371 -1.844 1.117 -2.422 c 0.77 -0.582 1.805 -0.867 3.133 -0.867 c 0.758 0 1.422 0.074 1.977 0.227 c 0.582 0.152 1.063 0.328 1.449 0.512 l -0.723 1.691 c -0.328 -0.168 -0.707 -0.301 -1.121 -0.426 c -0.402 -0.121 -0.867 -0.18 -1.406 -0.18 c -1.313 0 -1.961 0.422 -1.961 1.266 c 0 0.219 0.066 0.402 0.203 0.57 c 0.125 0.152 0.293 0.293 0.496 0.43 c 0.211 0.117 0.445 0.227 0.699 0.32 c 0.27 0.094 0.531 0.184 0.781 0.27 c 0.387 0.125 0.793 0.277 1.203 0.438 c 0.43 0.16 0.816 0.371 1.164 0.641 c 0.359 0.258 0.656 0.598 0.883 1 c 0.227 0.387 0.344 0.883 0.344 1.488 c 0 1.035 -0.387 1.836 -1.145 2.41 c -0.746 0.555 -1.895 0.832 -3.426 0.832 c -1.035 0 -1.852 -0.094 -2.465 -0.285 c -0.613 -0.203 -1.078 -0.387 -1.391 -0.547 l 0.727 -1.785 c 0.359 0.191 0.789 0.371 1.277 0.539 c 0.516 0.16 1.129 0.242 1.852 0.242" style="fill:#fff;fill-opacity:1;stroke:none;fill-rule:nonzero"/>
 </g>
</svg>
